FINK
CUT[SCHWAENE KOMMEN GEZOGEN]
REG[Europa, Mitteleuropa, Deutschland]
KEY[F0313  16  F 6/8]
MEL[  3__.^__3_  3__432__3_  5__.^__4#_  4__.0__.
    3__.5__5_  4#__+1_7__6_  5__.0__.
    3__.3__3_  3__432__3_  5__4_4__0_
    3__.2__1_  3__2_1__-7_  1__.0__.
    5_5_5_5#_5#_5#_  6__.6__
    +1_  +1_.76_6_5_4#_  5__.0__.
    6_7_+1_+1_6_4_  3__5_5__
    7_  +1__.5__3_  5__.^_-5_-5_  1__.0__. //] >>
FCT[Jugend - Lied, Natur; Schwestern - Liebe]
